packages/foundations/assets/icons/functional/images/notification/question_mark_circle_24.svg

<svg width="24" height="24" viewBox="0 0 24 24" fill="none" xmlns="http://www.w3.org/2000/svg">
<g clip-path="url(#clip0_187_202)">
<path fill-rule="evenodd" clip-rule="evenodd" d="M12 2C17.5312 2 22 6.4688 22 12C22 17.5312 17.5312 22 12 22C6.4688 22 2 17.5312 2 12C2 6.4688 6.4688 2 12 2ZM12 4C7.5938 4 4 7.5938 4 12C4 16.4062 7.5938 20 12 20C16.4375 20 20 16.4062 20 12C20 7.5938 16.4062 4 12 4ZM9.5017 7.5312C9.4704 8.0625 9.8767 8.4688 10.3767 8.5C10.8767 8.5312 11.5017 8.1562 12.283 8.1562C12.8454 8.1562 13.408 8.375 13.408 9C13.408 10.75 10.783 10.4062 10.783 13.0625C10.783 13.5938 11.2204 14.0312 11.7517 14.0312C12.3767 14.0312 12.7204 13.5312 12.7204 13.0625C12.7204 11.7188 15.3454 11.9062 15.3454 9C15.3454 7.3125 14.033 6.2188 12.2204 6.2188C10.9704 6.2188 9.5017 6.5312 9.5017 7.5312ZM10.55 16.7812C10.55 16.0938 11.1438 15.5312 11.8313 15.5312C12.5188 15.5312 13.1126 16.0938 13.1126 16.7812C13.1126 17.5 12.5188 18.0625 11.8313 18.0625C11.1438 18.0625 10.55 17.5 10.55 16.7812Z" fill="#1A1C1F"/>
</g>
<defs>
<clipPath id="clip0_187_202">
<rect width="24" height="24" fill="white"/>
</clipPath>
</defs>
</svg>

<svg xmlns="http://www.w3.org/2000/svg" width="24" height="24" fill="none"><g clip-path="url(#a)"><path fill="#1A1C1F" fill-rule="evenodd" d="M12 2a9.99 9.99 0 0 1 10 10 9.99 9.99 0 0 1-10 10A9.99 9.99 0 0 1 2 12 9.99 9.99 0 0 1 12 2m0 2c-4.406 0-8 3.594-8 8s3.594 8 8 8c4.438 0 8-3.594 8-8s-3.594-8-8-8M9.502 7.531c-.032.532.375.938.875.969s1.125-.344 1.906-.344c.562 0 1.125.219 1.125.844 0 1.75-2.625 1.406-2.625 4.063 0 .53.437.968.969.968.625 0 .968-.5.968-.969 0-1.343 2.625-1.156 2.625-4.062 0-1.687-1.312-2.781-3.125-2.781-1.25 0-2.718.312-2.718 1.312m1.048 9.25c0-.687.594-1.25 1.281-1.25.688 0 1.282.563 1.282 1.25 0 .719-.594 1.282-1.282 1.282a1.287 1.287 0 0 1-1.281-1.282" clip-rule="evenodd"/></g><defs><clipPath id="a"><path fill="#fff" d="M0 0h24v24H0z"/></clipPath></defs></svg>
